X:63
T:Paddy Be Aisy
T:Paddy Be Easy
R:slip jig
H:See also #71
Z:id:hn-slipjig-63
M:9/8
L:1/8
K:Ador
|: ~A3 edB efg | ~A3 edB d2B | ~A3 edB efg |1 fed edB d2B :|2 fed edB d2e ||
|: fef afd efg | fef afd g2e | fef afd efg |1 fed edB d2e :|2 fed edB d2B ||

